img/icons/icon-form.svg

<svg width="12" height="15" viewBox="0 0 12 15" fill="none" xmlns="http://www.w3.org/2000/svg">
<path fill-rule="evenodd" clip-rule="evenodd" d="M10.6667 1.33333H7.88C7.6 0.56 6.86667 0 6 0C5.13333 0 4.4 0.56 4.12 1.33333H1.33333C0.6 1.33333 0 1.93333 0 2.66667V13.3333C0 14.0667 0.6 14.6667 1.33333 14.6667H10.6667C11.4 14.6667 12 14.0667 12 13.3333V2.66667C12 1.93333 11.4 1.33333 10.6667 1.33333ZM6 1.33333C6.36667 1.33333 6.66667 1.63333 6.66667 2C6.66667 2.36667 6.36667 2.66667 6 2.66667C5.63333 2.66667 5.33333 2.36667 5.33333 2C5.33333 1.63333 5.63333 1.33333 6 1.33333ZM1.33333 2.66667V13.3333H10.6667V2.66667H9.33333V4.66667H2.66667V2.66667H1.33333Z" fill="white"/>
</svg>

<svg width="12" height="15" fill="none" xmlns="http://www.w3.org/2000/svg"><path fill-rule="evenodd" clip-rule="evenodd" d="M10.667 1.333H7.88A2.007 2.007 0 006 0c-.867 0-1.6.56-1.88 1.333H1.333C.6 1.333 0 1.933 0 2.667v10.666c0 .734.6 1.334 1.333 1.334h9.334c.733 0 1.333-.6 1.333-1.334V2.667c0-.734-.6-1.334-1.333-1.334zM6 1.333c.367 0 .667.3.667.667 0 .367-.3.667-.667.667A.669.669 0 015.333 2c0-.367.3-.667.667-.667zM1.333 2.667v10.666h9.334V2.667H9.333v2H2.667v-2H1.333z" fill="#fff"/></svg>
